X: 8823
T: Cuil Aodha, The
R: jig
M: 6/8
K: Gmajor
|:gfd cAd|~G3 B2c|ded cAG|FAD DEF|
~G3 GAB|~A3 fga|gfd cAF|~G3 GBd:|
|:g2g gfg|ade f2a|gfd cAd|cAG FGA|
d2g gfg|ade fga|gfd cAF|~G3 GBd:|

